X: 89
M:2/4
L:1/16
K:Bb
uF2|BABc Bcde|f=efg fdcB|f=efg fdcB|AfcA F2(GA)|
|:vcB|Afcf Afcf|Bfdf Bfdf|gaba gfed|cBAG FG"4"AF|


